X:06
T:King Wm Hornpipe. JBu.06
O:England,South Yorkshire
S:Joshua Burnett’s MS,c1835,S.Yorkshire
M:4/4
L:1/8
Q:1/2=90
R:.hornpipe
N:No time sig. in MS
Z:vmp.R.Greig.2010
K:F
c2|f2afe2ge|f2c2c2dc|dcBA BAGF|EFGA GECE|
f2afe2ge|f2c2c2dc|dcBA BAGF|EFGEF2:|
|:z2″rest added”|FAcA cAcA|FBdB dBdB|FAcA cAcA|GFED C2C2|
FAcA cAcA|FBdB dBdB|Acfa bgeg|f2f2f2:|

